X: 42109
T: War Hent Trabrin
R: polka
M: 2/4
K: Aminor
A/G/|:E A2 c-|c/B/A/G/ ED|EA- AB|cA B>G|
EA- Ac-|c/B/A/G/ ED|EA- AA/G/|A>B c/B/A/G/|
A2- Ac-|c/B/A/G/ ED|EA- Ae|d2 B>G|
EA- Ac-|c/B/A/G/ ED|EA- AA/G/|1 A2- AA/G/:|2 A2- AB/c/||
|:d2 eB|c>B AG|EA- AA|c/B/A/G/ A/B/c/e/|
d2 eB|c>B AG|EA- AA/G/|1 A2- AB/c/:|2 A2- AA/G/||

